img/svg/gift.svg

<svg width="24" height="24" viewBox="0 0 24 24" fill="none" xmlns="http://www.w3.org/2000/svg">
    <path
        d="M2.4001 14.0957L2.39991 8.82799C2.39986 7.50248 3.47438 6.42791 4.79989 6.4279L19.2001 6.42779C20.5256 6.42778 21.6001 7.5023 21.6001 8.82779V14.0957M2.4001 14.0957H21.6001M2.4001 14.0957L2.3999 19.6277C2.39986 20.9532 3.47439 22.0278 4.7999 22.0278H19.2001C20.5256 22.0278 21.6001 20.9533 21.6001 19.6278V14.0957M12.1746 22.0278V6.42778M10.9643 5.92258C11.144 5.9152 11.3101 5.82071 11.3995 5.66597C11.4888 5.51123 11.4875 5.32006 11.4041 5.16079C11.0855 4.58008 9.96742 2.64921 9.23775 2.22794C8.32868 1.70308 7.16098 2.01277 6.63873 2.91734C6.11651 3.82185 6.43206 4.98797 7.3412 5.51286C8.0828 5.94103 10.3021 5.93698 10.9643 5.92258ZM12.6347 5.16062C12.5512 5.31995 12.55 5.51106 12.6393 5.66581C12.7287 5.82055 12.8949 5.91499 13.0745 5.92242C13.7368 5.9368 15.968 5.93398 16.6976 5.5127C17.6067 4.98785 17.9224 3.82176 17.4001 2.91718C16.8779 2.01267 15.7102 1.70288 14.8011 2.22778C14.0595 2.65594 12.9533 4.57993 12.6347 5.16062Z"
        stroke="#0BBA74" stroke-width="2" stroke-linecap="round" stroke-linejoin="round" />
</svg>

<svg width="24" height="24" viewBox="0 0 24 24" fill="none" xmlns="http://www.w3.org/2000/svg"><path d="M2.4 14.096V8.828a2.4 2.4 0 012.4-2.4h14.4a2.4 2.4 0 012.4 2.4v5.268m-19.2 0h19.2m-19.2 0v5.532a2.4 2.4 0 002.4 2.4h14.4a2.4 2.4 0 002.4-2.4v-5.532m-9.425 7.932v-15.6m-1.21-.505a.525.525 0 00.434-.257.525.525 0 00.005-.505c-.319-.58-1.437-2.512-2.166-2.933a1.905 1.905 0 00-2.6.69 1.905 1.905 0 00.703 2.595c.742.428 2.961.424 3.623.41zm1.67-.762a.525.525 0 00.004.505c.09.155.256.249.436.256.662.015 2.893.012 3.623-.41a1.905 1.905 0 00.702-2.595 1.905 1.905 0 00-2.599-.69c-.742.429-1.848 2.353-2.166 2.934z" stroke="#0BBA74" stroke-width="2" stroke-linecap="round" stroke-linejoin="round"/></svg>
